icons/svg/additional_category/payment_type.svg

<?xml version="1.0" encoding="UTF-8" standalone="no"?>
<!-- Created with Inkscape (http://www.inkscape.org/) -->

<svg
   xmlns:dc="http://purl.org/dc/elements/1.1/"
   xmlns:cc="http://creativecommons.org/ns#"
   xmlns:rdf="http://www.w3.org/1999/02/22-rdf-syntax-ns#"
   xmlns:svg="http://www.w3.org/2000/svg"
   xmlns="http://www.w3.org/2000/svg"
   xmlns:sodipodi="http://sodipodi.sourceforge.net/DTD/sodipodi-0.dtd"
   xmlns:inkscape="http://www.inkscape.org/namespaces/inkscape"
   version="1.0"
   width="580"
   height="580"
   id="svg2"
   sodipodi:version="0.32"
   inkscape:version="0.91 r"
   sodipodi:docname="payment_type.svg"
   inkscape:output_extension="org.inkscape.output.svg.inkscape">
  <metadata
     id="metadata2975">
    <rdf:RDF>
      <cc:Work
         rdf:about="">
        <dc:format>image/svg+xml</dc:format>
        <dc:type
           rdf:resource="http://purl.org/dc/dcmitype/StillImage" />
        <cc:license
           rdf:resource="http://web.resource.org/cc/PublicDomain" />
        <dc:language>en</dc:language>
      </cc:Work>
    </rdf:RDF>
  </metadata>
  <sodipodi:namedview
     inkscape:window-height="1006"
     inkscape:window-width="1920"
     inkscape:pageshadow="2"
     inkscape:pageopacity="0.0"
     guidetolerance="10.0"
     gridtolerance="10.0"
     objecttolerance="10.0"
     borderopacity="1.0"
     bordercolor="#666666"
     pagecolor="#ffffff"
     id="base"
     inkscape:zoom="0.32586208"
     inkscape:cx="254.60009"
     inkscape:cy="314.61176"
     inkscape:window-x="1920"
     inkscape:window-y="0"
     inkscape:current-layer="svg2"
     showgrid="false"
     inkscape:window-maximized="1" />
  <defs
     id="defs4">
    <inkscape:perspective
       sodipodi:type="inkscape:persp3d"
       inkscape:vp_x="0 : 290 : 1"
       inkscape:vp_y="0 : 1000 : 0"
       inkscape:vp_z="580 : 290 : 1"
       inkscape:persp3d-origin="290 : 193.33333 : 1"
       id="perspective2441" />
  </defs>
  <g
     id="g1327">
    <path
       d="M 66.275,1.768 C 24.94,1.768 1.704,23.139 1.704,66.804 L 1.704,516.927 C 1.704,557.771 22.599,579.156 63.896,579.156 L 515.92,579.156 C 557.227,579.156 578.149,558.841 578.149,516.927 L 578.149,66.804 C 578.149,24.203 557.227,1.768 514.628,1.768 C 514.624,1.768 66.133,1.625 66.275,1.768 z "
       style="fill:#111;stroke:#eee;stroke-width:3.40799999"
       id="path1329" />
  </g>
  <g
     id="g4372"
     transform="translate(-130.0802,122.26983)" />
  <path
     style="color:#000000;clip-rule:nonzero;display:inline;overflow:visible;visibility:visible;opacity:1;isolation:auto;mix-blend-mode:normal;color-interpolation:sRGB;color-interpolation-filters:linearRGB;solid-color:#000000;solid-opacity:1;fill:#ffffff;fill-opacity:1;fill-rule:nonzero;stroke:none;stroke-width:1;stroke-linecap:butt;stroke-linejoin:miter;stroke-miterlimit:4;stroke-dasharray:none;stroke-dashoffset:0;stroke-opacity:1;marker:none;color-rendering:auto;image-rendering:auto;shape-rendering:auto;text-rendering:auto;enable-background:accumulate"
     d="m 97.958984,132.6783 c -14.425876,0 -26.039062,11.61319 -26.039062,26.03907 l 0,237.61075 c 0,14.42589 11.613186,26.03907 26.039062,26.03907 l 384.082036,0 c 14.42587,0 26.03906,-11.61318 26.03906,-26.03907 l 0,-237.61075 c 0,-14.42588 -11.61319,-26.03907 -26.03906,-26.03907 z m 8.679686,32.85938 366.72266,0 0,39.05877 -366.72266,0 z m 0,121.51829 366.72266,0 0,104.15692 -366.72266,0 z"
     id="rect4142"
     inkscape:connector-curvature="0"
     sodipodi:nodetypes="ssssssssscccccccccc" />
</svg>

<svg width="580" height="580" viewBox="0 0 580 580" fill="none" xmlns="http://www.w3.org/2000/svg">
<g clip-path="url(#clip0)">
<path d="M66.275 1.76799C24.94 1.76799 1.70399 23.139 1.70399 66.804V516.927C1.70399 557.771 22.599 579.156 63.896 579.156H515.92C557.227 579.156 578.149 558.841 578.149 516.927V66.804C578.149 24.203 557.227 1.76799 514.628 1.76799C514.624 1.76799 66.133 1.62499 66.275 1.76799Z" fill="#111111" stroke="#EEEEEE" stroke-width="3.408"/>
<path d="M97.959 132.678C83.5331 132.678 71.9199 144.291 71.9199 158.717V396.328C71.9199 410.754 83.5331 422.367 97.959 422.367H482.041C496.467 422.367 508.08 410.754 508.08 396.328V158.717C508.08 144.291 496.467 132.678 482.041 132.678H97.959ZM106.639 165.538H473.361V204.596H106.639V165.538ZM106.639 287.056H473.361V391.213H106.639V287.056Z" fill="white"/>
</g>
<defs>
<clipPath id="clip0">
<rect width="580" height="580" fill="white"/>
</clipPath>
</defs>
</svg>
